frontend/src/Link/icons/play.svg

<?xml version="1.0" encoding="UTF-8" standalone="no"?>
<!DOCTYPE svg  PUBLIC '-//W3C//DTD SVG 1.1//EN'  'http://www.w3.org/Graphics/SVG/1.1/DTD/svg11.dtd'>
<svg style="enable-background:new 0 0 210 210" xmlns="http://www.w3.org/2000/svg" version="1.1" y="0px" x="0px" viewBox="0 0 210 210">
 <path d="m190.32 90.03l-153.54-87.764c-2.643-1.512-5.59-2.266-8.537-2.266-0.06 0-0.119 0.008-0.178 0.008-0.396 0.004-0.791 0.024-1.185 0.055-0.178 0.014-0.355 0.033-0.533 0.053-0.308 0.034-0.615 0.077-0.921 0.128-0.111 0.019-0.223 0.025-0.334 0.046l0.006 0.008c-1.913 0.353-3.78 1.027-5.515 2.034-5.314 3.083-8.585 8.762-8.585 14.905v175.53c0 6.143 3.271 11.822 8.585 14.905 1.734 1.007 3.601 1.682 5.514 2.035l-0.005 0.007c0.1 0.019 0.201 0.025 0.3 0.041 0.329 0.056 0.659 0.102 0.99 0.137 0.166 0.018 0.331 0.036 0.497 0.049 0.389 0.031 0.777 0.049 1.167 0.054 0.066 0.001 0.131 0.009 0.197 0.009 2.947 0 5.894-0.754 8.541-2.266l153.54-87.78c5.368-3.069 8.681-8.777 8.681-14.962v-0.016c0-6.202-3.31-11.91-8.68-14.98zm-60.72-17.429l-15.266 20.027-38.834-50.956 54.104 30.929zm53.28 34.349l-107.38 61.381 67.234-88.206 40.145 22.947c0.695 0.397 1.127 1.141 1.127 1.938-0.01 0.8-0.44 1.54-1.13 1.94z"/>
</svg>

<?xml version="1.0" encoding="iso-8859-1"?>
<!-- Generator: Adobe Illustrator 18.0.0, SVG Export Plug-In . SVG Version: 6.00 Build 0)  -->
<!DOCTYPE svg PUBLIC "-//W3C//DTD SVG 1.1//EN" "http://www.w3.org/Graphics/SVG/1.1/DTD/svg11.dtd">
<svg version="1.1" id="Capa_1" xmlns="http://www.w3.org/2000/svg" xmlns:xlink="http://www.w3.org/1999/xlink" x="0px" y="0px"
	 viewBox="0 0 210 210" style="enable-background:new 0 0 210 210;" xml:space="preserve">
<path d="M190.32,90.03L36.784,2.266C34.137,0.754,31.19,0,28.243,0c-0.06,0-0.119,0.008-0.178,0.008
	c-0.396,0.004-0.791,0.024-1.185,0.055c-0.178,0.014-0.355,0.033-0.533,0.053c-0.308,0.034-0.615,0.077-0.921,0.128
	c-0.111,0.019-0.223,0.025-0.334,0.046l0.006,0.008c-1.913,0.353-3.78,1.027-5.515,2.034c-5.314,3.083-8.585,8.762-8.585,14.905
	v175.527c0,6.143,3.271,11.822,8.585,14.905c1.734,1.007,3.601,1.682,5.514,2.035l-0.005,0.007c0.1,0.019,0.201,0.025,0.3,0.041
	c0.329,0.056,0.659,0.102,0.99,0.137c0.166,0.018,0.331,0.036,0.497,0.049c0.389,0.031,0.777,0.049,1.167,0.054
	c0.066,0.001,0.131,0.009,0.197,0.009c2.947,0,5.894-0.754,8.541-2.266L190.32,119.97c5.368-3.069,8.681-8.777,8.681-14.962
	c0,0,0-0.003,0-0.004c0,0,0-0.003,0-0.004c0,0,0-0.003,0-0.004c0,0,0-0.003,0-0.004C199.001,98.808,195.688,93.1,190.32,90.03z
	 M129.602,72.601l-15.266,20.027L75.496,41.672L129.602,72.601z M182.876,106.947l-107.38,61.381l67.234-88.206l40.145,22.947
	c0.695,0.397,1.127,1.141,1.127,1.938C184.001,105.807,183.569,106.551,182.876,106.947z"/>
<g>
</g>
<g>
</g>
<g>
</g>
<g>
</g>
<g>
</g>
<g>
</g>
<g>
</g>
<g>
</g>
<g>
</g>
<g>
</g>
<g>
</g>
<g>
</g>
<g>
</g>
<g>
</g>
<g>
</g>
</svg>
